X: 05021
T: DONNA'S HORNPIPE
C: Bob McQuillen 7 Oct 80
B: Bob's Note Book 5 #21
%R: hornpipe, reel
Z: 2021 John Chambers <jc:trillian.mit.edu>
M: C
L: 1/8
K: D
fe \
| dedA BAFA | dcde f2ef | gagf ecde | fgab a2fe |\
| dedA BAFA | dcde fdef | gabg afeg | f2d2 d2 :|
|: FG \
| AFAd fedB | ABAF A2FG | AFAd fagf | f2e2 egfe |\
| dcde fedB | ABAF Adfa | gbag fedc | d2D2 D2 :|
%%begintext align
%% Donna Maglen
%% of Concord, N.H. really loves the music and
%% dancing - She has the longest neck I ever saw
%% on her banjo.
%%endtext

%%sep 1 1 500

%%sep 1 1 500

